X:1
T:Title
%%score { ( 1 4 ) | ( 2 3 ) }
L:1/8
Q:1/4=100
M:4/4
K:Bb
V:1 treble nm="Grand Piano"
V:4 treble 
V:2 bass 
V:3 bass 
V:1
 [B,DF][DG] [F,B,DF]2 [Bdf][Bdg] [Bdf]2 | [A,EF][EG] [F,A,EF]2 [Aef][eg] [Aef]2 | %2
w: I.~H.~Meredith * * * * *||
 [EAe]2 [EAe]2 [Ed]2 [EA_d]2 | [Dd][DB] [DF]2 [dd'][db] [df]2 | %4
w: ||
 [B,DF][DG] [F,B,DF]2 [Bdf][Bdg] [Bdf]2 | [A,EF][EG] [F,A,EF]2 [Aef][Aeg] [Aef]2 | %6
w: ||
 [GAe]2 [GAe]2 [FAd]2 [EAc]2 | [DFB]6[K:bass][K:treble] z2 | [B,EG]2 [EGB]2 [Ge]2 [EG]2 | %9
w: |||
 [DF]>[EG] [DF][CE] D2[K:bass] F,B, | A,2[K:treble] e2 e2[K:bass] F,C | %11
w: ||
[M:3/4] B,2[K:treble] f2 f2 |[M:1/4] [FB][FA] |[M:4/4] [EG]2 [GB]2 [Ge]2 [EG]2 | %14
w: |||
 [DF]>[EG] [DF][CE] [B,D]2 [DF][_DG] | [CA]2 [Fc]2 [=EB]2 [B,EG]2 | [A,FA]6 z2 | %17
w: |||
 F,-[F,DG] [F,B,DF]2 [Bdf][Bdg] [Bdf]2 | [A,EF][EG] [F,A,EF]2 [Aef][Aeg] [Aef]2 | %19
w: ||
 [EAe]2 [EAe]2 [EAd]2 [EA_d]2 | [Dd][DB] [DF]2 [dd'][db] [df]2 | %21
w: ||
 [D_AB][DAc] [DAB]2 [d_ab][dac'] [dab]2 | [EGc][EGd] [EGc]2 [egc'][egd'] [egc']2 | %23
w: ||
 [FBd]2 [B,FB]2 [A,EF]2 [EAc]2 | [DFB]6[K:bass] z2 |] %25
w: ||
V:2
 [B,,F,]2 z2 z4 | z A, F,,2 z A F,,2 | [C,F,]2 [F,,F,]2 [C,F,]2 [F,,F,]2 | %3
 [B,,F,]2 [F,,F,]2 [B,,F,]2 [F,,F,]2 | [B,,F,]2 z2 z4 | [C,F,]2 z2 z4 | %6
 [F,,F,]2 [F,,F,]2 [F,,F,]2 [F,,F,]2 | [B,,B,]2 F,,2 B,,,2 D,D, | E,2 E,2 [E,B,]2 [E,B,]2 | %9
 [B,,B,]>[B,,B,] [B,,B,][B,,F,] [B,,F,B,]2 z2 | z2[K:treble] [CFA]2 [CFA]2 z2 | %11
[M:3/4] z2 [DFB]2 [DFB]2 |[M:1/4][K:bass] [D,B,][D,B,] |[M:4/4] [E,B,]2 [E,E]2 [E,B,]2 [E,B,]2 | %14
 [B,,B,]>[B,,B,] [B,,B,][B,,F,] [B,,F,]2 [B,,B,][B,,F,] | [C,F,]2 [C,A,]2 [C,G,]2 C,2 | F,6 z2 | %17
 z B, F,,2 [B,,F,]2 [F,,F,]2 | [C,F,]2 z2 z4 | [C,F,]2 [F,,F,]2 [C,F,]2 [F,,F,]2 | %20
 [B,,F,]2 [F,,F,]2 [B,,F,]2 [F,,F,]2 | [B,,F,]2 [F,,F,]2 [B,,F,]2 [F,,F,]2 | %22
 [E,,E,]2 [C,,C,]2 [E,,E,]2 [C,,C,]2 | [F,,F,]2 [D,,D,]2 [C,,C,]2 [F,,F,]2 | %24
 [B,,B,]2 F,,2 B,,,2 z2 |] %25
V:3
 z B, F,,2 [B,,F,]2 [F,,F,]2 | [C,F,]2 z2 [C,F,]2 z2 | x8 | x8 | z B, F,,2 [B,,F,]2 [F,,F,]2 | %5
 z A, F,,2 [C,F,]2 [F,,F,]2 | x8 | x8 | x8 | x8 | x2[K:treble] x6 |[M:3/4] x6 |[M:1/4][K:bass] x2 | %13
[M:4/4] x8 | x8 | x8 | z2 E,2 D,2 C,2 | B,,2 z2 z4 | z A, F,,2 [C,F,]2 [F,,F,]2 | x8 | x8 | x8 | %22
 x8 | x8 | x8 |] %25
V:4
 x8 | x8 | x8 | x8 | x8 | x8 | x8 | z2[K:bass] F,2 B,,2[K:treble] [B,FB][B,FA] | x8 | %9
 x6[K:bass] x2 | x2[K:treble] x4[K:bass] x2 |[M:3/4] x2[K:treble] x4 |[M:1/4] x2 |[M:4/4] x8 | x8 | %15
 x8 | x8 | .[B,DF]2 z2 z4 | x8 | x8 | x8 | x8 | x8 | x8 | z2[K:bass] F,2 B,,2 z2 |] %25

